storage/app/icons/phosphoricons/bold/list-dashes-bold.svg

<svg xmlns="http://www.w3.org/2000/svg" fill="currentColor" viewBox="0 0 256 256"><path d="M84 64a12 12 0 0 1 12-12h120a12 12 0 0 1 0 24H96a12 12 0 0 1-12-12m132 52H96a12 12 0 0 0 0 24h120a12 12 0 0 0 0-24m0 64H96a12 12 0 0 0 0 24h120a12 12 0 0 0 0-24M56 52H40a12 12 0 0 0 0 24h16a12 12 0 0 0 0-24m0 64H40a12 12 0 0 0 0 24h16a12 12 0 0 0 0-24m0 64H40a12 12 0 0 0 0 24h16a12 12 0 0 0 0-24"/></svg>

<svg xmlns="http://www.w3.org/2000/svg" viewBox="0 0 256 256" fill="currentColor"><path d="M84,64A12,12,0,0,1,96,52H216a12,12,0,0,1,0,24H96A12,12,0,0,1,84,64Zm132,52H96a12,12,0,0,0,0,24H216a12,12,0,0,0,0-24Zm0,64H96a12,12,0,0,0,0,24H216a12,12,0,0,0,0-24ZM56,52H40a12,12,0,0,0,0,24H56a12,12,0,0,0,0-24Zm0,64H40a12,12,0,0,0,0,24H56a12,12,0,0,0,0-24Zm0,64H40a12,12,0,0,0,0,24H56a12,12,0,0,0,0-24Z"/></svg>
